X:377
T:Jump on the Year
M:C|
C:© Paul Gitlitz 2014
K:Am
"Am"Acef- "Dm"fede|"Am"cdBc "G"ABGB|"Am"Acef- "Dm"fede|"C"gfed "Am"ceBc|!
"Am"Acef- "Dm"fede|"Am"cdBc "G"ABGB|"Am"cABd "F"ecdf|"Em"ecBA- "Am"A4:|!
|:"F"FAcB- BAcF|"G"GBde- edfd|"Am"Acef- "F"f2af|"Dm"efg2 "G"B4|!
"Am"A,CEF- "F"FGAF|"G"GBde- efdB|"Am"cABd "F"ecdf|"Em"ecBA- "Am"A4:|]
